X: 46
M: 6/8
L: 1/8
K: Am
E |\
(A>B)A (B>A)B | (c>B)c Bcd |\
(e>d)c (B>A)B | A3- A2 :|\
|: A |\
ecA ecA | ecA ecA |\
(e>d)c (B>A)B | A3- A2 :|

